X:9
T:No.91 Green Grow the Rushes-O
C:highland(schottische)
L:1/8
M:4/4
K:G
(3DEF||G2 G>A B<G G>B|A2 B>d e<A A>B|
c>d e>c B>d g>B|A>c B>A G>E (3DEF|
G2 G>A B<G G>B|A2 B>d e<A A>B|
c>d e>c B>d g>B|A>c B>A G>E D>f||
g2 g>a g<d d>g|e<a a>b a>e e>f|
g>a g>e d>B g>B|A>c B>A G>E D>f|
g2 g>a g<d d>g|e<a a>b a>g e>f|
g>f g>e d>B g>B|(3ABc B>A G>E (3DEF||
